X: 38229
T: Squire Woods Lamentation On Refusal Of His Halfpence
R: reel
M: 4/4
K: Gmajor
GA|B4 B3 g|d2 Bd B2 AG|B4 B3 g|e2 de B3 g|
e2 dB d2 dA|B2 AG A2 GE|G3 A BG dB|TA4 G2||
d2|ef g2 G2 g2|ga b/a/g e3 d|B2 d2 efgf|Te4 d3 d|
efga gG g2|ga b/a/g e3 d|BA B2 dB d2|ed e2 =f4|
ge g2 ed e2|dB d2 BG B2|g3 e dgdB|A4 G2||

